priv/static/svgs/icons_new/time-watch.svg

<svg width="32" height="32" viewBox="0 0 32 32" fill="none" xmlns="http://www.w3.org/2000/svg">
<path d="M21.4588 5.83453C21.3675 5.57395 21.0821 5.43679 20.8215 5.52817C20.561 5.61956 20.4238 5.90488 20.5152 6.16547L21.4588 5.83453ZM11.4848 6.16547C11.5762 5.90488 11.439 5.61956 11.1785 5.52817C10.9179 5.43679 10.6325 5.57395 10.5412 5.83453L11.4848 6.16547ZM20.5152 24.8345C20.4238 25.0951 20.561 25.3804 20.8215 25.4718C21.0821 25.5632 21.3675 25.4261 21.4588 25.1655L20.5152 24.8345ZM10.5412 25.1655C10.6325 25.4261 10.9179 25.5632 11.1785 25.4718C11.439 25.3804 11.5762 25.0951 11.4848 24.8345L10.5412 25.1655ZM16.5 11.4198C16.5 11.1437 16.2761 10.9198 16 10.9198C15.7239 10.9198 15.5 11.1437 15.5 11.4198H16.5ZM16 15.8045H15.5C15.5 15.9738 15.5857 16.1317 15.7278 16.2239L16 15.8045ZM18.6369 18.1117C18.8685 18.2621 19.1782 18.1961 19.3285 17.9645C19.4788 17.7329 19.4129 17.4232 19.1813 17.2729L18.6369 18.1117ZM23.5 15.5C23.5 19.6656 20.1399 23.0385 16 23.0385V24.0385C20.6967 24.0385 24.5 20.2134 24.5 15.5H23.5ZM16 23.0385C11.8601 23.0385 8.5 19.6656 8.5 15.5H7.5C7.5 20.2134 11.3033 24.0385 16 24.0385V23.0385ZM8.5 15.5C8.5 11.3344 11.8601 7.96154 16 7.96154V6.96154C11.3033 6.96154 7.5 10.7866 7.5 15.5H8.5ZM16 7.96154C20.1399 7.96154 23.5 11.3344 23.5 15.5H24.5C24.5 10.7866 20.6967 6.96154 16 6.96154V7.96154ZM20.5152 6.16547L22.4373 11.6462L23.3809 11.3153L21.4588 5.83453L20.5152 6.16547ZM9.56274 11.6462L11.4848 6.16547L10.5412 5.83453L8.61908 11.3153L9.56274 11.6462ZM21.4588 25.1655L23.3809 19.6847L22.4373 19.3538L20.5152 24.8345L21.4588 25.1655ZM8.61908 19.6847L10.5412 25.1655L11.4848 24.8345L9.56274 19.3538L8.61908 19.6847ZM15.5 11.4198V15.8045H16.5V11.4198H15.5ZM15.7278 16.2239L18.6369 18.1117L19.1813 17.2729L16.2722 15.385L15.7278 16.2239Z" fill="black"/>
</svg>

<svg width="32" height="32" viewBox="0 0 32 32" fill="none" xmlns="http://www.w3.org/2000/svg">
  <symbol id="item" viewBox="0 0 32 32"  fill="none">
    <path d="M21.459 5.835a.5.5 0 1 0-.944.33l.944-.33Zm-9.974.33a.5.5 0 0 0-.944-.33l.944.33Zm9.03 18.67a.5.5 0 0 0 .944.33l-.944-.33Zm-9.974.33a.5.5 0 1 0 .944-.33l-.944.33ZM16.5 11.42a.5.5 0 0 0-1 0h1Zm-.5 4.385h-.5a.5.5 0 0 0 .228.419l.272-.42Zm2.637 2.307a.5.5 0 1 0 .544-.84l-.544.84ZM23.5 15.5c0 4.166-3.36 7.538-7.5 7.538v1c4.697 0 8.5-3.825 8.5-8.538h-1ZM16 23.038c-4.14 0-7.5-3.372-7.5-7.538h-1c0 4.713 3.803 8.538 8.5 8.538v-1ZM8.5 15.5c0-4.166 3.36-7.538 7.5-7.538v-1c-4.697 0-8.5 3.825-8.5 8.538h1ZM16 7.962c4.14 0 7.5 3.372 7.5 7.538h1c0-4.713-3.803-8.538-8.5-8.538v1Zm4.515-1.797 1.922 5.481.944-.33-1.922-5.481-.944.33ZM9.563 11.646l1.922-5.48-.944-.331-1.922 5.48.944.331Zm11.896 13.52 1.922-5.481-.944-.331-1.922 5.48.944.332Zm-12.84-5.481 1.922 5.48.944-.33-1.922-5.481-.944.33ZM15.5 11.42v4.385h1V11.42h-1Zm.228 4.804 2.909 1.888.544-.84-2.909-1.887-.544.839Z" fill="currentColor"/>
  </symbol>
</svg>
